icons/svg/road_shields/h_white_pillow_3_road_shield.svg

<?xml version="1.0" encoding="UTF-8" standalone="no"?>
<!-- Generator: Adobe Illustrator 16.0.4, SVG Export Plug-In . SVG Version: 6.00 Build 0)  -->

<svg
   xmlns:dc="http://purl.org/dc/elements/1.1/"
   xmlns:cc="http://creativecommons.org/ns#"
   xmlns:rdf="http://www.w3.org/1999/02/22-rdf-syntax-ns#"
   xmlns:svg="http://www.w3.org/2000/svg"
   xmlns="http://www.w3.org/2000/svg"
   xmlns:sodipodi="http://sodipodi.sourceforge.net/DTD/sodipodi-0.dtd"
   xmlns:inkscape="http://www.inkscape.org/namespaces/inkscape"
   version="1.1"
   id="Слой_1"
   x="0px"
   y="0px"
   width="30"
   height="27"
   viewBox="0 0 30 27"
   enable-background="new 0 0 17.143 17.17"
   xml:space="preserve"
   inkscape:version="0.91 r13725"
   sodipodi:docname="h_white_pillow_3_road_shield.svg"><metadata
     id="metadata13"><rdf:RDF><cc:Work
         rdf:about=""><dc:format>image/svg+xml</dc:format><dc:type
           rdf:resource="http://purl.org/dc/dcmitype/StillImage" /><dc:title></dc:title></cc:Work></rdf:RDF></metadata><defs
     id="defs11" /><sodipodi:namedview
     pagecolor="#ffffff"
     bordercolor="#666666"
     borderopacity="1"
     objecttolerance="10"
     gridtolerance="10"
     guidetolerance="10"
     inkscape:pageopacity="0"
     inkscape:pageshadow="2"
     inkscape:window-width="1920"
     inkscape:window-height="1006"
     id="namedview9"
     showgrid="false"
     inkscape:zoom="22.627417"
     inkscape:cx="-12.294266"
     inkscape:cy="15.160212"
     inkscape:window-x="1920"
     inkscape:window-y="0"
     inkscape:window-maximized="1"
     inkscape:current-layer="Слой_1" /><path
     style="color:#000000;clip-rule:evenodd;display:inline;overflow:visible;visibility:visible;opacity:0.70099996;isolation:auto;mix-blend-mode:normal;color-interpolation:sRGB;color-interpolation-filters:linearRGB;solid-color:#000000;solid-opacity:1;fill:#515151;fill-opacity:1;fill-rule:evenodd;stroke:none;stroke-width:2.11525011;stroke-linecap:butt;stroke-linejoin:miter;stroke-miterlimit:4;stroke-dasharray:none;stroke-dashoffset:0;stroke-opacity:1;marker:none;color-rendering:auto;image-rendering:auto;shape-rendering:auto;text-rendering:auto;enable-background:accumulate"
     d="M 15.095703,3.9613246 C 6.3186884,3.8816513 0.73828119,7.4226443 0.73828119,7.4226443 0.31087304,7.5906946 0.04909267,7.8939882 0.04882806,8.2214314 l 0,10.5588866 c -1.63e-5,0.334532 0.2728553,0.643369 0.71484376,0.809061 0,0 5.63631948,3.450621 14.31445318,3.450621 8.678133,0 14.173828,-3.457042 14.173828,-3.457042 0.432957,-0.16715 0.698978,-0.472518 0.699219,-0.80264 l 0,-10.5588866 c -1.79e-4,-0.332817 -0.270463,-0.6402737 -0.708984,-0.8064925 0,0 -5.405418,-3.3742675 -14.146485,-3.4536143 z"
     id="path4152"
     inkscape:connector-curvature="0"
     sodipodi:nodetypes="sccccsccccs" /><path
     style="color:#000000;clip-rule:evenodd;display:inline;overflow:visible;visibility:visible;opacity:1;isolation:auto;mix-blend-mode:normal;color-interpolation:sRGB;color-interpolation-filters:linearRGB;solid-color:#000000;solid-opacity:1;fill:#ffffff;fill-opacity:1;fill-rule:evenodd;stroke:none;stroke-width:1;stroke-linecap:butt;stroke-linejoin:miter;stroke-miterlimit:4;stroke-dasharray:none;stroke-dashoffset:0;stroke-opacity:1;marker:none;color-rendering:auto;image-rendering:auto;shape-rendering:auto;text-rendering:auto;enable-background:accumulate"
     d="m 1.2002309,8.5456054 c 0,0 5.2923835,-3.5759506 13.8794251,-3.4994994 8.587041,0.076451 13.720113,3.4994994 13.720113,3.4994994 l 0,9.9099976 c 0,0 -5.219004,3.499499 -13.720113,3.499499 -8.5011103,0 -13.8794249,-3.499499 -13.8794249,-3.499499 z"
     id="rect4135"
     inkscape:connector-curvature="0"
     sodipodi:nodetypes="czcczcc" /></svg>

<svg width="30" height="27" viewBox="0 0 30 27" fill="none" xmlns="http://www.w3.org/2000/svg">
<path opacity="0.701" fill-rule="evenodd" clip-rule="evenodd" d="M15.0957 3.96135C6.31869 3.88167 0.738281 7.42267 0.738281 7.42267C0.310873 7.59072 0.0490927 7.89401 0.0488281 8.22145V18.7803C0.0488118 19.1149 0.321683 19.4237 0.763672 19.5894C0.763672 19.5894 6.39999 23.04 15.0781 23.04C23.7563 23.04 29.252 19.583 29.252 19.583C29.6849 19.4158 29.9509 19.1105 29.9512 18.7803V8.22145C29.951 7.88864 29.6807 7.58118 29.2422 7.41496C29.2422 7.41496 23.8368 4.04069 15.0957 3.96135V3.96135Z" fill="#515151"/>
<path fill-rule="evenodd" clip-rule="evenodd" d="M1.20023 8.54563C1.20023 8.54563 6.49261 4.96968 15.0797 5.04613C23.6667 5.12258 28.7998 8.54563 28.7998 8.54563V18.4556C28.7998 18.4556 23.5808 21.9551 15.0797 21.9551C6.57854 21.9551 1.20023 18.4556 1.20023 18.4556L1.20023 8.54563Z" fill="white"/>
</svg>
